X:1
T:MAGI VIDERUNT STELLAM
T:Tomás Luis de Victoria(1548-1611)
T:MAGI VIDERUNT STELLAM
T:© CPDL 2012
T:© CPDL 2012
T:© CPDL 2012
T:© CPDL 2012
T:© CPDL 2012
T:© CPDL 2012
C:Tomás Luis de Victoria(1548-1611)
Z:© CPDL 2012
%%score [ 1 2 3 4 ]
L:1/8
M:4/4
K:F
V:1 treble nm="Soprano" snm="S."
V:2 treble nm="Alto" snm="A."
V:3 treble-8 transpose=-12 nm="Tenor" snm="T."
V:4 bass nm="Bass" snm="B."
V:1
 G8 | F4 G4 | B6 B2 | A4 G4 | z2 F2 (F3 G | AB) c4 B2 | (A3 G/A/ B2 A2- | A2 G2 F2 D2) | C4 z4 | %9
w: Ma-|gi vi-|de- runt|stel- lam,|vi- de- *|* * * runt|stel- * * * *||lam,|
 G4 F4 | G4 B4- | B2 B2 A4 | G4 z2 F2 | (F3 GAB c2- | c2) B2 (A3 G | AB c3 BAG | ^F2 G4 F2) | %17
w: Ma- gi|vi- de-|* runt stel-|lam, vi-|de- * * * *|* runt stel- *|||
 G4 B4- | B2 B2 B4 | A6 A2 | (G3 A B2) c2 | d4 z2 d2 | (d3 cBA B2- | BABG A4- | A2) A2 G4- | %25
w: lam, qui|_ di- xe-|runt ad|in- * * vi-|cem, ad|in- * * * *||* vi- cem:|
 G4 z2 d2 | d2 d2 (AGAB | c2) A2 (c2 d2- | dc c3 B B2- | B2 AG A2) A2 | B4 z2 F2 | (GFGA BABc | %32
w: _ Hoc|si- gnum ma- * * *|* gni Re- *||* * * * gis|est, e-|a- * * * * * * *|
 d3 B c4- | c2 BA B4) | A2 D2 (A3 F | G4) F4- | F4 z2 G2 | A2 A2 B2 G2 | (c3 BAG G2- | G2 ^F2) G4 | %40
w: ||mus e- a- *|* mus,|_ et|in- qui- ra- mus|e- * * * *|* * um,|
 z8 | z4 z2 G2 | A2 A2 B2 G2 | (cBAG F2 B2- | BA A3 G G2- | G2 ^F2) G4 | z2 B2 B2 B2 | A2 G2 A4 | %48
w: |et|in- qui- ra- mus|e- * * * * *||* * um,|et of- fe-|ra- mus e-|
 G2 =B2 B2 B2 | c8 | B2 d2 d2 d2 | c4 B4 | (A2 G4 ^F2) | G8 | F6 F2 | G4 z2 G2- | G2 G2 A4 | %57
w: i, et of- fe-|ra-|mus, et of- fe-|ra- mus|e- * *|i|mu- ne-|ra, mu-|* ne- ra,|
 z2 d4 c2 | A2 B2 A4 | G2 c4 B2 | G2 B2 A4- | A4 G4- | G4 z2 D2 | (EDEF GA B2- | BA G4 ^F2) | %65
w: au- rum,|thus et myr-|rham, au- rum,|thus et myr-|* rham,|_ et|myr- * * * * * *||
 G4 B4 | A2 G2 F2 A2 | (G2 F2) E4 | D2 d2 c2 B2 | A4 z4 | z4 B4 | A2 G2 ^F3 B | A2 G4 ^F2 | G8- | %74
w: rham. Al-|le- lu- ia, al-|le- * lu-|ia, al- le- lu-|ia,|al-|le- lu- ia, al-|le- lu- *|ia.|
 G8- | G8- | G8- | G8 |] %78
w: _||||
V:2
 z8 | z8 | z8 | z8 | D8 | C4 D4 | F6 F2 | E4 D4 | z2 C2 (F,G,A,B, | C4) D2 (F2- | F2 E2) D4- | %11
w: ||||Ma-|gi vi-|de- runt|stel.- lam,|vi- de- * * *|* runt stel-|* * lam,|
 D4 z4 | z4 D4- | D4 C4 | D4 F4- | F2 F2 E4 | D8- | D4 z2 G2- | G2 G2 G4 | F8 | D4 G4- | %21
w: _|Ma-|* gi|vi- de-|* runt stel-|lam,|_ qui|_ di- xe-|runt|ad- in-|
 G2 (^FE) F4 | z2 G2 G2 G2 | (DCDE F4) | C4 (_E3 D/C/ | B,3 CDE F2- | F2) F2 F4- | F4 z2 F2- | %28
w: * vi- * cem:|Hoc si- gnum|ma- * * * *|gni Re- * *||* gis est,|_ ma-|
 F2 F2 D2 E2 | F4 z2 C2 | (DCDE F4- | F2 E2 D4) | G,2 G2 (G2 ^F2) | G2 G,2 (DCDE | F3 E/D/ C2 D2- | %35
w: * gni Re- gis|est: e-|a- * * * *||mus, e- a- *|mus, e- a- * * *||
 D2 ^C2) D4 | z2 D2 E2 E2 | F2 D2 (G3 F | ED B,4 B,2 | A,4) G,2 C2- | C2 D3 C B,2 | G,4 z2 D2 | %42
w: * * mus,|et in- qui-|ra- mus e- *||* um, et|_ in- qui- ra-|mus, et|
 C2 A,2 (D3 E | F2) E2 D4- | D4 G,4 | z2 D2 D2 D2 | (G,A,B,C DCDE | F2) G2 ^F G2 F | G2 D2 D2 D2 | %49
w: in- qui- ra- *|* mus e-|* um,|et of- fe-|ra- * * * * * * *|* mus e- * *|i, et of- fe-|
 E6 E2 | (D3 E F2 G2- | G2 ^F2 G3 !courtesy!=F | !courtesy!_E2 D3 C C2) | D4 z2 (D2- | %54
w: ra- mus|e- * * *|||i mu-|
 D2 CB, C2 D2 | _E2) E2 D4- | D8- | D2 z2 G4- | G2 F2 D2 E2 | D4 D4 | z2 G4 F2 | D2 F2 E4 | D8 | %63
w: |* ne- ra|_|* au-|* rum, thus et|myr- rham,|au- rum|thus et myr-|rham,|
 C4 D4- | D8 | D8 | z4 z2 F2 | E2 (D4 ^C2) | D4 z4 | z2 D2 (C2 B,2) | A,4 G,2 B,2 | C2 C2 D3 F | %72
w: et myr-||rham.|Al-|le- lu- *|la'|al- le- *|lu- ia, al-|le- lu- ia, al-|
 _E4 (D3 C | =B,2 C2) G,2 !courtesy!_E2 | D2 C2 _B,2 _E2- | E2 D2 (C3 D | _E4) D4- | D8 |] %78
w: le- lu- *|* * ia, al-|le- lu- ia, al-|* le- lu- *|* ia.|_|
V:3
 z8 | z8 | G8 | F4 G4 | B6 B2 | A4 G4 | z2 F2 (F3 G | AB c2) A2 (B2- | B2 AGAB c2- | %9
w: ||Ma-|gi vi-|de- runt|stel- lam,|vi- de- *|* * * runt sel-||
 cB/A/ G2) A2 d2 | (c3 B GABc | d2) B2 (c3 d | _e2) d2 z4 | z8 | z2 d2 d2 d2 | c2 A2 (c3 B | %16
w: * * * * lam, vi-|de- * * * * *|* runt sel- *|* lam,||Ma- gi vi-|de- runt stel- *|
 A2 G2 A4) | G2 d4 d2 | d8 | d2 d2 (c4- | c2 BA G2) G2 | A6 A2 | B2 B2 G4 | z2 d2 d2 d2 | %24
w: |lam, qui di-|xe-|runt ad in-|* * * * vi-|cem, ad|in- vi- cem:|Hoc si- gnum|
 (AGAB c4) | G4 B4- | B2 B2 B2 (FG | AB c2) A2 (B2- | BA/G/ A2 B2) B2 | c4 z2 F2 | (BABc d4 | %31
w: ma- * * * *|gni Re-|* gis est, ma- *|* * * gni Re-|* * * * * gis|est: e-|a- * * * *|
 c4) B4 | z2 G2 (cBcd | _e2 dc B2 G2) | A4 z2 D2 | (GFGA B2 A2- | AGAF G2 E2) | D4 z4 | z8 | %39
w: * mus,|e- a- * * *||mus, e-|a- * * * * *||mus.||
 z4 z2 G2 | A2 A2 B2 G2 | (c3 BAG G2- | G2 ^F2) G4 | z4 z2 G2 | G2 A2 B2 c2 | A4 G2 d2 | %46
w: et|in- qui ra- mus|e- * * * *|* * um,|et|in- qui- ra- mus|e- um, et|
 d2 d2 (GABc | d2) e2 d4 | G4 z2 G2 | G2 G2 (CDEF | GABc d2) B2 | (cBcd _e2 d2 | cBBA/G/ A4) | %53
w: of- fe- ra- * * *|* mus e-|i, et|of- fe- ra- * * *|* * * * * mus,|e- * * * * *||
 G2 B4 B2 | A8 | z2 c4 B2 | G2 B2 A4- | A4 G4 | z2 d4 A2 | c4 z2 (GA | Bc d4) (A2- | AGAB c4) | %62
w: i mu- ne-|ra,|au- rum,|thus et myr-|* rham,|au- rum,|thus et _|_ _ _ myr-||
 (G3 A B4) | z2 c4 B2 | G2 B2 A4 | G4 z2 B2 | c2 c2 d3 A | c2 d2 A4 | z2 B2 A2 G2 | F3 G A2 (G2- | %70
w: rham, _ _|au- rum,|thus et myr-|rham. Al-|le- lu- ia, al-|le- lu- ia,|al- le- lu-|ia, al- le- lu-|
 G2 ^F2) G4 | z4 z2 d2 | c2 B2 A4 | G2 _e2 d2 c2 | B2 (!courtesy!_e3 d/c/ B2) | %75
w: * * ia,|al-|le- * lu-|la, al- le- lu-|ia, al- * * *|
 (c2 d2) (!courtesy!_e3 d | c!courtesy!=B c4 BA) | =B8 |] %78
w: le- * lu- *||ia.|
V:4
 z8 | z8 | z8 | z8 | z8 | z8 | D,8 | C,4 D,4 | F,6 F,2 | E,4 D,4 | z4 G,4- | G,4 F,4 | G,4 B,4- | %13
w: ||||||Ma-|gi vi-|de- runt|stel- lam,|Ma-|* gi|vi- de-|
 B,2 B,2 A,4 | G,4 z2 D,2 | F,4 C,4 | D,8 | G,,4 G,4- | G,2 G,2 G,4 | D,4 F,4 | (G,3 F,_E,D, E,2 | %21
w: * runt stel-|lam, vi-|de- runt|stel-|lam, qui|_ di- xe-|runt ad|in- * * * *|
 D,6) D,2 | G,4 z2 G,2 | G,2 G,2 D,C,D,E, | F,4 C,4 | (_E,3 D,/C,/ B,,4- | B,,2) B,,2 F,4 | %27
w: * vi|cem: Hoc|si- gnum ma- * * *|* gni|Re- * * *|* gis est,|
 z2 F,4 B,,2 | (F,4 G,4 | F,6) F,2 | B,,8 | z2 C,2 (G,F,G,A, | B,4 A,4) | G,4 z2 G,,2 | %34
w: ma- gni|Re- *|* gis|est.|e- a- * * *||mus, e-|
 (D,C,D,F, F,4 | E,4) D,4- | D,4 z4 | z8 | z8 | D,4 E,2 E,2 | F,2 D,2 (G,3 F, | E,D, C,4 B,,2 | %42
w: a- * * * *|* mus|_|||et in- qui-|ra- mus e- *||
 A,,4) G,,2 G,2 | A,2 A,2 (B,3 A, | G,2 F,2 _E,2) E,2 | D,4 G,,4- | G,,4 z4 | z8 | z2 G,2 G,2 G,2 | %49
w: * um, et|in- qui- ra- *|* * * mus-|e- um,|||et of- fe-|
 (C,D,E,F, G,F,G,A, | B,6) G,2 | A,4 G,4 | z8 | z2 (G,,3 A,,B,,C, | D,E, F,3 E, D,2 | %55
w: ra- * * * * * * *|* mus|e- i.||mu- * * *||
 C,2) C,2 G,4 | z2 G,4 F,2 | D,2 F,2 E,4 | D,8 | z2 C,2 G,4- | G,4 D,4- | D,4 z2 C,2- | %62
w: * ne- ra,|au- rum,|thus et myr-|rham,|et myr-|* rham|_ au-|
 C,2 B,,2 G,,2 B,,2 | A,,4 G,,4- | G,,2 G,,2 D,4 | G,,4 G,4 | F,2 E,2 D,4 | z8 | B,,4 C,2 C,2 | %69
w: * rum, thus et|myr- rham,|_ et myr-|rham. Al-|le- lu- ia,||al- le- lu-|
 D,3 E, F,2 G,2 | D,4 G,,2 G,2 | F,2 E,2 D,3 B,, | C,4 D,4 | G,,2 C,2 =B,,2 C,2 | %74
w: ia, al- le- *|lu- ia al-|le- lu- ia, al-|le- lu-|la, al- le- lu-|
 B,,2 C,2 (_E,3 D, | C,2 =B,,2) C,4- | C,4 G,,4- | G,,8 |] %78
w: ia, al- le- *|* * lu-|* ia.|_|

